X:1
T:9 Lieder und Gesänge, Op.63
T:Frühlingstrost
T:1. Frühlingstrost
T:Johannes Brahms
T:Max von Schenkendorf
T:9 Lieder und Gesänge, Op.63
T:Creative Commons copyright waiver (CC0 1.0 Universal) 
T:Creative Commons copyright waiver (CC0 1.0 Universal) 
T:Creative Commons copyright waiver (CC0 1.0 Universal) 
T:Creative Commons copyright waiver (CC0 1.0 Universal) 
C:Johannes Brahms
Z:Max von Schenkendorf
Z:Creative Commons copyright waiver (CC0 1.0 Universal)
Z:
L:1/8
M:6/4
K:A
V:1 treble nm="Voice" snm="Vo."
V:1
 z6 z2 z2 E2 | A4 A2 f4 e2 | e4 ^d2 A4 B2 | c4 A2 f4 e2 | c4 d2 A4 B2 | c4 B2 B2 z2 =c2 | %6
w: Es|weht um mich Nar-|zis- sen- duft, es|spricht zu mir die|Früh- lings- luft: Ge-|lieb- * ter, Ge-|
 e4 ^d2 d2 z2 e2 | a4 c2 ^d3 def | e4 e2 f2 ^d2 B2 | g4 f2 c4 ^d2 | e4 e2 e6- | e4 c2 e2 d2 B2 | %12
w: lieb- * ter, er-|wach im ro- ten Mor- gen-|glanz, dein harrt * ein|blü- ten- rei- cher|Kranz, Be- trüb-||
 G2 z2 e2 e6 | f2 e2 c2 e2 d2 F2 | A6 d4 G2 | A2 z2 z2 z6 | z6 z2 z2 B2 | c2 ^d2 e2 f4 B2 | %18
w: ter, Be- trüb-|* * * * ter, Be-|trüb- * *|ter!|Nur|musst * du kämp- fen|
 c2 ^d2 e2 f4 B2 | e2 g2 f2 e2 ^d2 c2 | ^d4 f2- f2 e2 ^A2 | B2 z2 ^d2 d4 c2 | B2 z2 ^d2 d4 c2 | %23
w: drum * und tun und|län- * ger nicht * in|Träu- * * * men|ruhn; lass schwin *|den, lass schwin- *|
 B2 z2 B2 ^d2 e2 f2 | c4 B2 ^d2 e2 f2 | c4 B2 e2 g2 f2 | e2 ^d2 c2 B2 G2 F2 | B2 z2 c2 e4 ^d2 | %28
w: den! Komm, Lie- * ber,|komm aufs Feld * hin-|aus, du wirst * im|grü- * nen Blät- * ter-|haus ihn fin- *|
 e2 z2 e2 =g4 f2 | e2 z2 ^A2 c4 B2 | E2 z2 z2 z6 | z6 z2 z2 E2 | A4 A2 f4 e2 | e4 ^d2 A4 B2 | %34
w: den, ihn fin- *|den, ihn fin- *|den.|Wir|sind dir al- le|wohl- ge- sinnt, du|
 c4 A2 f4 e2 | c4 d2 A4 B2 | c4 B2 B2 z2 =c2 | e4 ^d2 d2 z2 e2 | a4 c2 ^d3 d^d'f | %39
w: ar- mes, lie- be-|ban- ges Kind, wir|Düf- * te, wir|Düf- * te; warst|im- mer trei uns Spiel- ge-|
 e2 z2 e2 f2 ^d2 B2 | g4 f2 c4 ^d2 | e2 z2 e2 e6- | e4 c2 e2 d2 B2 | G2 z2 e2 e6 | %44
w: sell, drum die- * nen|wil- lig dir und|schnell die Lüf-||te, die lüf-|
 f2 e2 c2 e2 d2 F2 | A6 d4 B2 | A2 z2 z2 z6 | z6 z2 z2 A2 |[K:D] f2 d2 B2 d4 c2 | g2 e2 c2 e4 d2 | %50
w: * * * * te, die|Lüf- * *|te.|Zur|Lieb- * sten tra- gen|wir * dein Ach, und|
 d3 e d2 d2 A2 d2 | e3 f e2 e3 f e2 | e4 B2 c2 z2 f2 | e4 B2 c2 z2 z2 | z6 z2 z2 c2 | %55
w: krän- * zen ihr * das|Schlaf- * ge- mach * mit|Blü- * ten, mit|Blü- * ten.|Wir|
 f2 d2 B2 d4 c2 | e2 c2 A2 c4 B2 | d2 B2 G2 B4 ^A2 | d3 e d2 d3 e d2 | f4 d2 A2 z2 d2 | f6- f2 e4 | %61
w: wol- * len, wenn du|von * ihr gehst, und|ein- * sam dann und|trau- * rig stehst, * sie|hü- * ten, sie|hü- * *|
 d2 z2 z2 z6 | z6 z4 E2 |[K:A] A4 A2 f4 e2 | e4 ^d2 A4 B2 | c4 A2 f4 e2 | c4 d2 A4 B2 | %67
w: ten.|Er|wach im mor- gen-|ro- ten Glanz, schon|har- ret dein der|Myr- ten kranz, Ge-|
 c4 B2 B2 z2 =c2 | e4 ^d2 d2 z2 e2 | a4 c2 ^d3 def | e2 z2 e2 f2 ^d2 B2 | g4 f2 c4 ^d2 | %72
w: lieb- * ter, Ge-|lieb- * ter! Der|Früh- ling kün- det gu- te|Mär, und nun * kein|Ach, kein Wei- nen|
 e2 z2 e2 e6- | e4 c2 e2 d2 B2 | G2 z2 e2 e6 | f2 e2 c2 e2 d2 F2 | A6 d4 G2 | A2 z2 z2 z6 |] %78
w: mehr, Be- trüb-||ter, Be- trüb-|* * * * ter, Be-|trüb- * *|ter!|

